!!!COM:	L. van Beethoven
!!!OTL:	Op. 59 No. 3 Movement 1 - String Quartet No. 9
**kern	**dynam
*I"Cello	*
*clefF4	*
*k[]	*
*C:	*
*M3/4	*
=1	=1
!LO:TX:a:B:t=Andante con moto	!
!LO:TX:a:B:t=Introduzione	!
[2.F#X	f
=2	=2
4F#]	[
4r	.
4r	.
=3	=3
[2.Fn	.
=4	=4
4F]	pp
4r	.
4r	.
=5	=5
!LO:TX:b:i:t=sempre	!
(2.E	.
=6	=6
2D)	.
(8.CTL	pp
32BBLL	.
32CJJJ	.
=7	=7
2BB	.
4AA)	.
=8	=8
[2.AA-X	f
=9	=9
4AA-]	[
4r	p
4r	.
=10	=10
!LO:TX:b:i:t=sempre	!
[2.AA-X	.
=11	=11
2.AA-_	pp
=12	=12
(2AA-]	.
[4GG)	.
=13	=13
(2GG]	.
[4FF)	.
=14	=14
2.FF]	.
=15	=15
!!linebreak:original
[2.EE	.
=16	=16
(2.EE]	.
=17	=17
2.EE-X)	.
=18	=18
[2.DD	.
=19	=19
2.DD_	.
=20	=20
2.DD]	.
=21	=21
2.CC	.
=22	=22
[2.BB	.
=23	=23
2.BB_	.
=24	=24
4BB]	.
4r	.
4r	.
=25	=25
2.r	.
=26	=26
[2.BB	.
=27	=27
2.BB_	.
=28	=28
2.BB_	.
=29	=29
2BB]	.
=30||	=30||
!!linebreak:original
*M4/4	*
*met(c)	*
8C'	p
!LO:TX:a:B:t=Allegro vivace	!
8r	.
=31!|:	=31!|:
2.GG	.
4r	.
=32	=32
1r	.
=33	=33
1r	.
=34	=34
1r	.
=35	=35
2r	.
4r	f
8D'	.
8r	.
=36	=36
2.AA	.
4r	.
=37	=37
1r	.
=38	=38
1r	.
=39	=39
1r	.
=40	=40
1r	.
=41	=41
2r	.
4r	.
8D'	.
8r	pp
=42	=42
1C	.
=43	=43
!LO:TX:b:i:t=cresc.	!
1GG	f
=44	=44
8CCL	.
8C	.
8C	.
8CJ	.
8CL	.
8C	.
8C	.
8CJ	.
=45	=45
!!linebreak:original
8CL	.
8CC	.
8C	.
8CJ	.
8CL	.
8CC	.
8C	.
8CJ	.
=46	=46
8CL	.
8CC	.
8C	.
8CJ	.
8CL	.
8C	.
8C	.
8CJ	.
=47	=47
8CL	.
8CC	.
8C	.
8CJ	.
8CL	.
8CC	.
8C	.
8CJ	.
=48	=48
8CL	.
8CC	.
8C	.
8CJ	.
2AA	.
=49	=49
8DL	.
8DD	.
8D	.
8DJ	.
2AA	.
=50	=50
(8AL	.
8FJ)	.
!LO:TX:a:i:t=ten.	!
4D	.
(8dL	.
8BJ)	.
!LO:TX:a:i:t=ten.	!
4G	.
=51	=51
(8GL	.
8EJ)	.
!LO:TX:a:i:t=ten.	!
4C	.
(<8FL	.
8CJ)	.
!LO:TX:a:i:t=ten.	!
4FF	.
=52	=52
!!linebreak:original
(<8GGL	.
16AAL	.
16BBJJ	.
16CLL	.
16D	.
16E	.
16FJJ)	.
[2G	.
=53	=53
8GL]	.
8G	.
8G	.
8GJ	.
8GL	.
8G	.
8G	.
8GJ	.
=54	=54
(8cL	.
8G)	.
8E'	.
8E'J	.
(8GL	.
8E)	.
8C'	.
8C'J	.
=55	=55
(8FL	.
8C)	.
8AA'	.
8AA'J	.
(8CL	.
8AA)	.
8FF'	.
8FF'J	.
=56	=56
[2GG	.
16GGLL]	.
(16C	.
16D	.
16EJJ	.
16FLL	.
16G	.
16A	.
16BJJ)	.
=57	=57
8c	.
8r	.
4r	.
2r	.
=58	=58
1r	.
=59	=59
!!linebreak:original
2r	.
2GG	p
=60	=60
4C	.
4r	.
8r	.
8EL	.
8E	.
8EJ	.
=61	=61
4D	.
4r	.
8r	.
8GGL	.
8GG	.
8GGJ	.
=62	=62
4C	.
4r	.
8r	.
8eL	.
8e	.
8eJ	.
=63	=63
4d	.
4r	.
8r	.
8GGL	.
8GG	.
8GGJ	.
=64	=64
(16CLL	.
16E	.
16D	.
16FJJ	.
16ELL	.
16G	.
16F	.
16AJJ)	.
(16GLL	.
16c	.
16B	.
16dJJ	.
16cLL	.
16e	.
16d	.
16fJJ)	.
*clefG2	*
=65	=65
(16eeLL	.
16gg	.
16ff	.
16aaJJ)	.
8gg'L	.
8gg'J	.
8gg'L	.
8gg'	.
8gg'	.
8gg'J	.
=66	=66
!!linebreak:original
[1gg	.
=67	=67
1gg_	.
=68	=68
1gg_	[
=69	=69
1gg_	<
=70	=70
(4gg]	[
8ffL	.
8eeJ)	.
(12eeL	.
12dd	.
12ccJ	.
12bL	.
12cc	.
12aJ)	.
*clefF4	*
=71	=71
(4B	.
4G#X	.
4E	.
4G#)	.
=72	=72
4A	.
4r	.
4r	.
8E-X'	.
8r	.
=73	=73
2.D	.
8E-X	.
8r	.
=74	=74
!LO:TX:b:i:t=cresc.	!
4.D	.
8E-X'	.
4.D	.
8E-	.
=75	=75
4.D	.
8E-X	.
4.D	.
8E-X	.
=76	=76
!!linebreak:original
8D	f
8r	.
8D	.
8r	.
8D	.
8r	.
8D	.
8r	.
=77	=77
8D	.
8r	.
4r	.
2r	.
=78	=78
8GG	f
8r	.
4r	.
2r	.
=79	=79
8C	p
8r	.
4r	.
2r	.
=80	=80
4r	.
(16DDLL	.
16EE	.
16FF#X	.
16DDJJ	.
16AALL	.
16BB	.
16C	.
16AAJJ	.
16DLL	.
16C	.
16BB	.
16AAJJ)	.
=81	=81
8BB	.
8r	.
8C	.
8r	.
8D	.
8r	.
8D	.
8r	.
=82	=82
8GG	f
8r	.
4r	.
2r	.
=83	=83
1r	.
=84	=84
1r	.
=85	=85
!!linebreak:original
4r	.
(16AALL	p
16BB	.
16C	.
16AAJJ	.
16ELL	.
16F#X	.
16G#X	.
16EJJ)	.
8A'L	.
8A'J	.
=86	=86
[1B	pp
=87	=87
4B]	.
[2.BB	.
=88	=88
4BB]	.
!LO:TX:b:i:t=cresc.	!
(16BBLL	.
16C	.
16D	.
16CJJ	.
16BBLL	.
16C	.
16BB	.
16AAJJ	.
16GGLL	.
16AA	.
16BB	.
16CJJ)	.
=89	=89
(<16DLL	.
16E	.
16F	.
16EJJ	.
16DLL	.
16C	.
16BB	.
16AAJJ	.
16GGLL	.
16AA	.
16GG	.
16FFJJ	.
16EELL	.
16FF	.
16EE	.
16DDJJ)	.
=90	=90
!!linebreak:original
8CCL	f
8C	.
8C	.
8CJ	f
8AAL	.
8A	.
8A	.
8AJ	.
=91	=91
8DL	f
8d	.
8d	.
8dJ	f
8DDL	.
8D	.
8D	.
8DJ	.
=92	=92
8GG	p
8r	.
4r	.
4r	.
8d#X'	.
8r	.
=93	=93
(4e	.
4dn	.
4c	.
8BL	.
8AJ)	.
=94	=94
[1d	.
=95	=95
1d]	.
=96	=96
[1D	.
=97	=97
1D]	.
=98	=98
!!linebreak:original
!LO:TX:b:i:t=cresc.	!
[2d	.
8dL]	.
(16cL	.
16BJJ	.
16ALL	.
16G	.
16F#X	.
16GJJ)	.
=99	=99
(16F#XLL	.
16A	.
16c	.
16AJJ	.
16F#LL	.
16D	.
16C	.
16AAJJ	.
16FF#XLL	.
16AA	.
16C	.
16AAJJ	.
16FF#LL	.
16AA	.
16FF#	.
16DDJJ)	.
=100	=100
(16GGLL	f
16FF#X	.
16GG	.
16EEJJ)	.
8DD'L	.
8EE'J	.
8FF#'L	.
8GG'	.
8AA'	.
8BB'J	.
=101	=101
8GG'L	.
8AA'	.
8BB'	.
8C'J	.
8AA'L	.
8BB'	.
8C'	.
8D'J	.
=102	=102
8BB'L	.
8C'	.
8D'	.
8C'J	.
8AA'L	.
8BB'	.
8FF#X'	sf
8GG'J	.
=103	=103
!!linebreak:original
8D'L	.
8C'	.
8GG#X'	.
8AA'J	sf
8BB'L	.
8C'	.
8AA'	.
8BB'J	sf
=104	=104
8FF#X'L	.
8GGn'	.
8EE'	.
8DD'J	.
8CC	.
8r	.
8DD	.
8r	.
=105	=105
4GG	.
8r	.
8GG'	.
4GG'	.
8r	.
8GG	.
=106	=106
4GG	.
8r	.
8GG	.
4GG	.
8r	.
8GG	.
=107	=107
4GG	.
4r	.
2r	.
=108	=108
1r	.
=109	=109
1r	.
=110	=110
2r	.
4r	.
8C'	p
8r	.
=111:|!	=111:|!
8GG	.
8r	.
4r	.
2r	.
=112	=112
!!linebreak:original
1r	.
=113	=113
1r	.
=114	=114
2r	.
4r	.
!LO:TX:b:i:t=cresc.	!
8BB-X	.
8r	.
=115	=115
8BB-X	.
8r	.
8G	.
8r	.
8F	.
8r	.
8E-X	.
8r	.
=116	=116
2.D	p
4r	.
=117	=117
1r	.
=118	=118
1r	.
=119	=119
1r	.
=120	=120
1r	.
=121	=121
1r	.
=122	=122
2r	.
4r	.
8E-X'	p
8r	.
=123	=123
2.D	.
8E-X'	.
8r	.
=124	=124
2.D	.
8F'L	.
16r	.
16E-X'Jk	.
=125	=125
!!linebreak:original
(8C#XL	.
8DJ)	.
8D'L	.
16r	.
16Cn'Jk	.
(8AAL	.
8BB-XJ)	.
4r	.
=126	=126
2r	.
4r	.
8f'L	.
16r	.
16e-X'Jk	.
=127	=127
(8c#XL	.
8dJ)	.
8d'L	.
16r	.
16cn'Jk	.
(8AL	.
8B-XJ)	.
4r	.
=128	=128
1r	.
=129	=129
4r	.
8.CL	.
16BBnJk	.
8BBL	.
8CJ	.
4r	.
=130	=130
4r	.
8C'L	pp
16r	.
16BB'Jk	.
(8BBL	.
8CJ)	.
8C'L	.
16r	.
16BB'Jk	.
=131	=131
(8BBL	.
8CJ)	.
8C'L	.
16r	.
16BB'Jk	.
(8BBL	.
8CJ)	.
8C'L	.
16r	.
16BB'Jk	.
=132	=132
!!linebreak:original
8BBL	.
8BB	.
8BB	.
8BBJ	.
8BBL	.
8BB	.
8BB	.
8BBJ	.
=133	=133
8BBL	.
8BB	.
8BB	.
8BBJ	.
2BB	.
=134	=134
2BB	.
2BB	.
=135	=135
2BB	.
2BB	.
=136	=136
!LO:TX:b:i:t=cresc.	!
2BB	.
2BB	.
=137	=137
2BB	.
2BB-X	.
=138	=138
*^	*
2AA	8AALyy	f
.	8AAyy	.
.	8AAyy	.
.	8AAyy	.
2AA	8AAyy	.
.	8AAyy	.
.	8AAyy	.
.	[8AAJyy	.
=139	=139	=139
2GG	8GGL]	.
.	8GGyy	.
.	8GGyy	.
.	8GGyy	.
2GG	8GGyy	.
.	8GGyy	.
.	8GGyy	.
.	8GGJyy	.
*v	*v	*
=140	=140
4FF	p
4r	.
8r	.
8AL	.
8A	.
8AJ	.
=141	=141
4G	.
4r	.
8r	.
8CL	.
8C	.
8CJ	.
=142	=142
!!linebreak:original
4FF	.
4r	.
2r	.
=143	=143
1r	.
=144	=144
!LO:TX:b:i:t=cresc.	!
(16FFLL	.
16AA	.
16GG	.
16BB-XJJ	.
16AALL	.
16C	.
16BB-	.
16DJJ)	.
8CL	.
8C	.
8C	.
8CJ	.
=145	=145
[1C	.
=146	=146
1C_	fp
=147	=147
1C_	.
=148	=148
1C]	.
=149	=149
!LO:TX:b:i:t=cresc.	!
2.F	.
8D'	.
8r	.
=150	=150
2.C#X	.
8C#'	.
8r	.
=151	=151
!!linebreak:original
2.D	.
8D'	.
8r	.
=152	=152
2.BB	.
8BB'	.
8r	.
=153	=153
4C	f
4r	.
2r	.
=154	=154
16r	.
16GLL	.
16B	.
16dJJ	.
16fLL	.
16d	.
16B	.
16GJJ	.
16FLL	.
16D	.
16BB	.
16DJJ	.
16GGLL	.
16BB	.
16D	.
16FJJ	.
=155	=155
8E-X	.
8r	.
4C'	ff
[2c	.
=156	=156
4c]	.
4AA-X'	.
[2A-X	.
=157	=157
4A-]	.
4FF'	.
[2F	.
=158	=158
4F]	.
4D-X'	.
[2AA-X	.
=159	=159
!!linebreak:original
!LO:TX:b:i:t=dim.	!
4AA-]	.
4D-X'	.
[2F	.
=160	=160
4F]	.
4D-X'	p
[2AA-X	.
=161	=161
4AA-]	.
4D-X'	.
[2F	.
=162	=162
4F]	.
4E-X'	.
[2D-X	.
=163	=163
4D-]	.
4C'	.
[2G-X	.
=164	=164
4G-]	.
4F'	.
[2E-X	.
=165	=165
4E-]	.
4D-X'	.
[2C	.
=166	=166
4C]	.
4BBn'	.
[2F	.
=167	=167
4F]	.
4E-X'	.
[2Dn	.
=168	=168
!!linebreak:original
4D]	.
4C'	.
[2c	.
=169	=169
4c]	.
4A-X'	pp
[2AA-X	.
=170	=170
4AA-]	.
4GG'	.
[2G	.
=171	=171
4G]	.
4A-X'	.
[2AA-X	.
=172	=172
8AA-]	.
8GG	.
4.G	.
8A-X	.
[4AA-X	.
=173	=173
8AA-]	.
8GG	.
!LO:TX:b:i:t=cresc.	!
4.G	.
8An	.
[4AAn	.
=174	=174
8AA]	.
8AA#X	.
4.A#X	.
8B	.
[4BB	.
=175	=175
8BB]	.
8C	.
4.c	.
8c#X	.
[4C#X	.
=176	=176
!!linebreak:original
8C#]	.
8D	.
4.d	ff
8D	.
[4d	.
=177	=177
8d]	.
8D	.
4.d	.
8D	.
4d	.
=178	=178
4d	f
4r	.
2r	.
=179	=179
1r	.
=180	=180
4BB	p
4r	.
2r	.
=181	=181
1r	.
=182	=182
2r	.
4r	.
(4A#X	.
=183	=183
[1B)	pp
=184	=184
4B]	.
4r	.
2r	.
=185	=185
1r	.
=186	=186
1r	.
=187	=187
!!linebreak:original
4r	.
8GG	.
8r	.
8C	.
8r	.
4r	.
=188	=188
2r	.
4r	.
4B#X	pp
=189	=189
[1c#X	.
=190	=190
4c#]	.
4r	.
2r	.
=191	=191
1r	.
=192	=192
1r	.
=193	=193
4r	.
8AA	.
8r	.
8D	.
8r	.
4r	.
=194	=194
1r	.
=195	=195
!LO:TX:b:i:t=cresc.	!
4r	.
(4AA-X	.
4GG)	.
8GG'	.
8r	.
=196	=196
8CCL	f
8C	.
8C	.
8CJ	.
8CL	.
8C	.
8C	.
8CJ	.
=197	=197
!!linebreak:original
8CL	.
8CC	.
8C	.
8CJ	.
8CL	.
8CC	.
8C	.
8CJ	.
=198	=198
8CL	.
8CC	.
8C	.
8CJ	.
8CL	.
8C	.
8C	.
8CJ	.
=199	=199
8CL	.
8CC	.
8C	.
8CJ	.
8CL	.
8CC	.
8C	.
8CJ	.
=200	=200
8CL	.
8CC	.
8C	.
8CJ	.
2AA	.
=201	=201
8DL	.
8DD	.
8D	.
8DJ	.
2AA	.
=202	=202
8DL	.
8DD	.
8D	.
8DJ	.
(16dLL	.
16B	.
16d	.
16BJJ)	.
8G'L	.
8G'J	.
=203	=203
(16cLL	.
16G	.
16c	.
16GJJ)	.
8E'L	.
8c'J	.
(16fLL	.
16c	.
16f	.
16cJJ)	.
8A'L	.
8F'J	.
=204	=204
!!linebreak:original
[2G	.
8GL]	.
(16AL	.
16BJJ	.
16cLL	.
16d	.
16e	.
16fJJ)	.
=205	=205
8gL	.
8G	.
8G	.
8GJ	.
8GL	.
8G	.
8G	.
8GJ	.
=206	=206
(12cL	.
12G)	.
12E'J	.
12EL	.
12E	.
12EJ	.
(12GL	.
12E)	.
12C'J	.
12CL	.
12C	.
12CJ	.
=207	=207
(12FL	.
12C)	.
12AA'J	.
12AAL	.
12AA	.
12AAJ	.
(12CL	.
12AA)	.
12FF'J	.
12FFL	.
12FF	.
12FFJ	.
=208	=208
16GGLL	.
(16C	.
16D	.
16EJJ	.
16FLL	.
16G	.
16A	.
16BJJ	.
16cLL)	.
(16E	.
16F	.
16GJJ	.
16ALL	.
16B	.
16c	.
16dJJ)	.
=209	=209
!!linebreak:original
8e	.
8r	.
4r	.
2r	.
=210	=210
[1g	.
=211	=211
1g]	fp
=212	=212
[1g	.
=213	=213
1g_	.
=214	=214
2.g]	.
8c'	.
8r	.
=215	=215
(2B	.
2A	.
=216	=216
2G	.
2F)	.
=217	=217
(2E	.
8F)	.
8r	.
4r	.
=218	=218
(2D	.
8E)	.
8r	.
4r	.
=219	=219
(2E	.
8F)	.
8r	.
4r	.
=220	=220
!!linebreak:original
(2D	.
8E)	.
8r	.
4r	.
=221	=221
1r	.
=222	=222
2.B	p
8c'	.
8rD	.
=223	=223
4.B	.
!LO:TX:b:i:t=cresc.	!
8c'	.
4.B	.
8c'	.
=224	=224
4.B	.
8c'	.
4.B	.
8c'	.
=225	=225
8.BL	.
16cJk	.
8.BL	.
16cJk	.
8.BL	.
16cJk	.
8.BL	.
16cJk	.
=226	=226
8B	.
8r	f
8G	.
8r	.
8G	.
8r	.
8GG	.
8r	.
=227	=227
8GG	.
8r	.
4r	.
2r	.
=228	=228
!!linebreak:original
8CC	f
8r	.
4r	.
2r	.
=229	=229
8F	.
8r	p
4r	.
2r	.
=230	=230
4r	.
(16GGLL	.
16AA	.
16BB	.
16GGJJ	.
16BBLL	.
16C	.
16D	.
16BBJJ	.
16GLL	.
16F	.
16E	.
16DJJ)	.
=231	=231
8E	.
8r	.
8F	.
8r	.
8G	.
8r	.
8GG	.
8r	.
=232	=232
8C	f
8r	.
4r	.
2r	.
=233	=233
1r	.
=234	=234
1r	.
=235	=235
4r	.
(16DLL	p
16E	.
16F	.
16DJJ	.
16ALL	.
16B	.
16c#X	.
16AJJ)	.
8d'L	.
8d'J	.
=236	=236
(4e	pp
4G#X	.
4A	.
4cn)	.
=237	=237
!!linebreak:original
(4B	.
4GG#X	.
4AA	.
4C)	.
=238	=238
!LO:TX:b:i:t=cresc.	!
[1C	.
=239	=239
2C]	.
(16CLL	.
16BB-X	.
16AA	.
16GGnJJ	.
16FFLL	.
16EE	.
16DD	.
16CCJJ)	.
=240	=240
8FFL	f
8F	.
8F	.
8FJ	.
8DDL	f
8D	.
8D	.
8DJ	.
=241	=241
8GGL	f
8G	.
8G	.
8GJ	f
8GGL	.
8G	.
8G	.
8GJ	.
=242	=242
8C	.
8r	p
4r	.
4r	.
8g#X'	.
8r	.
=243	=243
(4a	.
4gn	.
4f	.
8eL	.
8dJ)	.
=244	=244
[1g	.
=245	=245
1g]	.
=246	=246
!!linebreak:original
[1G	.
=247	=247
1G_	.
=248	=248
!LO:TX:b:i:t=cresc.	!
8G]	.
8r	.
[4g	.
8gL]	.
(16fL	.
16eJJ	.
16dLL	.
16c	.
16B	.
16cJJ)	.
=249	=249
(16BLL	.
16d	.
16f	.
16dJJ	.
16BLL	.
16G	.
16F	.
16DJJ)	.
(<16BBLL	.
16D	.
16F	.
16DJJ	.
16BBLL	.
16D	.
16BB	.
16GGJJ)	.
=250	=250
(16CLL	f
16BB	.
16C	.
16AAJJ)	.
8GG'L	.
8AA'J	.
8BB'L	.
8C'	.
8D'	.
8E'J	.
=251	=251
8C'L	f
8D'	.
8E'	.
8F'J	.
8D'L	.
8E'	.
8F'	.
8G'J	.
=252	=252
!!linebreak:original
8E'L	f
8F'	.
8G'	.
8F'J	.
8D'L	.
8E'	.
8BB'	sf
8C'J	.
=253	=253
8GL	.
8F	.
8C#X	sf
8DJ	.
8EL	.
8F	.
8D	sf
8EJ	.
=254	=254
8BBL	.
8Cn	.
8AA	.
8GGJ	.
8FF	.
8r	.
8GG	.
8r	.
=255	=255
4CC	.
8r	.
8C'	.
4C'	.
8r	.
8C	.
=256	=256
4C	.
8r	.
8C	.
4C	.
8r	.
8C	.
=257	=257
4C	.
4r	.
2r	.
=258	=258
2r	.
4r	.
!LO:TX:a:t=pizz.	!
4GG	.
=259	=259
4CC	.
4r	.
2r	.
=260	=260
!!linebreak:original
2r	.
4r	.
4GG	.
=261	=261
4CC	.
4r	.
4r	.
!LO:TX:b:i:t=dim.	!
4GG	.
=262	=262
4CC	.
4r	.
4r	.
!LO:TX:a:t=arco.	!
[4GG	.
=263	=263
4GG]	.
!LO:TX:a:i:t=string. il tempo.	!
8FF#X	pp
8r	.
[2GG	.
=264	=264
4GG]	.
8FF#X	.
8r	.
[2GG	.
=265	=265
!LO:TX:b:i:t=cresc.	!
1GG_	.
=266	=266
1GG_	.
=267	=267
1GG_	.
=268	=268
4GG]	f
2G	.
4G	.
=269	=269
4C	.
4r	.
4GG	ff
4r	.
=270	=270
4CC	.
4r	.
2r	.
=271!|:	=271!|:
!!linebreak:original
*k[]	*
*a:	*
*M6/8	*
!LO:TX:a:B:t=Andante con moto quasi Allegretto.	!
4EE	.
!LO:TX:a:t=pizz.	!
8r	f
4EE	.
8r	p
=272	=272
4EE	.
8r	.
4EE	.
8r	.
=273	=273
4EE	.
8r	.
4EE	.
8r	.
=274	=274
4EE	.
8r	.
4EE	.
8r	.
=275	=275
8AAL	.
!LO:TX:b:i:t=cresc.	!
8BB	.
8AAJ	.
8GG#XL	.
8AA	.
8GGnJ	.
=276	=276
8FFL	.
8EE	.
8DDJ	.
8CCL	.
8DD	.
8DD#XJ	.
=277:|!	=277:|!
8AAL	.
!LO:TX:b:i:t=cresc.	!
8BB	.
8AAJ	.
8GG#XL	.
8AA	.
8GGnJ	.
=278	=278
8FFL	.
8GG	.
8FFJ	.
8EEL	.
8FF	.
8DDnJ	.
=279!|:	=279!|:
!!linebreak:original
4CC	f
8r	.
4C	p
8r	.
=280	=280
4FF	.
8r	.
4AA	.
8r	.
=281	=281
4DD	.
8r	.
4D	f
8r	.
=282	=282
4AA	p
8r	.
4AA	.
8r	.
=283	=283
4DD	.
8r	.
!LO:TX:a:t=arco	!
4.E	.
=284	=284
4AA	.
8AA	.
(8CL	sfp
8BB	.
8AAJ)	.
=285	=285
4.EE	.
4.E	.
=286	=286
4AA	.
8AA	.
(8CL	sfp
8BB	.
8AAJ)	.
=287	=287
!!linebreak:original
4.EE	.
(8CL	sfp
8BB	.
8AAJ)	.
=288	=288
4.EE	.
(8FL	.
!LO:TX:b:i:t=cresc.	!
8E	.
8DJ)	.
=289	=289
(4C	p
8F	.
4D	.
8E)	.
=290	=290
!LO:TX:b:i:t=cresc.	!
4F	.
8r	.
4r	.
!LO:TX:a:t=pizz.	!
8GG#X	.
=291	=291
4AA	.
8FF	>
4DD	.
8EE	.
=292	=292
8AAL	]
8GGn	p
!LO:TX:b:i:t=cresc.	!
8EEJ	.
8GGL	.
8FF	.
8DDJ	.
=293:|!	=293:|!
4AA	.
8r	p
4AA	.
8r	.
=294	=294
!!linebreak:original
4AA	.
8r	.
4AA	.
8r	.
=295	=295
4AA	.
8r	.
4AA	.
8r	.
=296	=296
4AA	.
8r	.
4AA	.
8r	.
=297	=297
4AA	.
8r	.
4AA	.
8r	.
=298	=298
4AA	.
8r	f
4CC	.
8r	.
=299	=299
4CC	p
8r	.
4CC	.
8r	.
=300	=300
4CC	.
8r	.
4CC	.
8r	.
=301	=301
4CC	.
8r	.
4CC	.
8r	.
=302	=302
4CC	.
8r	.
4CC	.
8r	.
=303	=303
4CC	.
8r	.
4CC	.
8r	.
=304	=304
!!linebreak:original
!LO:TX:b:i:t=cresc.	!
8FFL	.
!LO:TX:a:t=arco	!
(>8A-X	.
8FJ	.
8D-XL	.
8F	.
8CJ	.
=305	=305
8BBL	sfp
8Dn	.
8FJ)	.
(8D-XL	.
8F	.
8CJ	sfp
=306	=306
8BBL	.
8Dn	.
8FJ)	.
(8D-XL	.
8F	.
8CJ)	.
=307	=307
!LO:TX:b:i:t=cresc.	!
(8BBL	.
8Dn	.
8AA-XJ	.
8GGL	.
8BB	.
8GGJ	.
=308	=308
8AA-XL	.
8C	.
[8AA-J	.
8AA-L]	.
8GG	.
8FF#XJ)	.
=309	=309
4GG	.
8r	p
!LO:TX:a:t=pizz.	!
4GG	p
8r	.
=310	=310
4GG	.
8r	.
4GG	.
8r	.
=311	=311
!!linebreak:original
4GG	.
8r	.
4GG	.
8r	.
=312	=312
4GG	.
8r	.
4GG	.
8r	.
=313	=313
4GG	.
!LO:TX:b:i:t=dim.	!
8r	.
4GG	.
8r	.
=314	=314
4GG	.
8r	.
4GG	.
8FF	.
=315	=315
4EE	.
8r	.
4FF	.
8r	.
=316	=316
4GG	.
8r	.
8CL	.
8GG	.
8FFJ	.
=317	=317
4EE	.
8r	.
4FF	.
8r	.
=318	=318
4GG	.
8r	.
4C	.
8r	.
=319	=319
!!linebreak:original
!LO:TX:a:t=arco	!
8r	.
16BB'LL	.
16C'	.
16D'	.
16E'JJ	.
4F	.
8FF	.
=320	=320
4.GG	.
4C	.
8r	.
=321	=321
8r	.
16BB'LL	.
16C'	.
16D'	.
16E'JJ	.
4F	.
8FF	.
=322	=322
!LO:TX:b:i:t=cresc.	!
4.GG	.
4.GG	.
=323	=323
4CC	p
8r	.
!LO:TX:a:t=pizz.	!
4C	.
8r	.
=324	=324
4C	.
8r	.
4C	.
8r	.
=325	=325
4CC	.
8r	.
4CC	.
8r	.
=326	=326
4CC	.
8r	.
4CC	.
8r	.
=327	=327
4CC	.
8r	.
4CC	.
8r	.
=328	=328
4CC	.
8r	.
4CC	.
8r	.
=329	=329
!!linebreak:original
4CC	.
!LO:TX:b:i:t=dim.	!
8r	.
4CC	.
8r	.
=330	=330
4CC	.
8r	.
4CC	.
8r	.
=331	=331
4CC	pp
8r	.
4CC	.
8r	.
=332	=332
8CC	.
8r	.
!LO:TX:a:t=arco	!
(8E	.
8GL	sfp
8E	.
8CJ)	.
=333	=333
(8D-XL	.
8BB-X	.
8AA-XJ)	.
(8GG-XL	.
8BB-	.
8FFJ	sfp
=334	=334
8EEL	.
8GGn	.
8BB-XJ)	.
(8GG-XL	.
8BB-	.
8FFJ	sfp
=335	=335
8EEL	.
8GGn	.
8BB-XJ)	.
(8GG-XL	.
8BB-	.
8FFJ	.
=336	=336
8EEL	.
8GGn	.
8DD-XJ	.
8CCL	.
8EE	.
8GGJ)	.
=337	=337
!!linebreak:original
8FF	.
8r	.
8r	.
4r	.
8r	.
=338	=338
4r	.
8r	.
8r	.
!LO:TX:a:t=pizz.	!
8r	.
8BB-X	sf
=339	=339
4BB-X	p
8r	.
8r	.
8r	.
8BB-	sf
=340	=340
4BB-X	p
8r	.
8r	.
8r	.
8BB-	.
=341	=341
4BB-X	p
8r	.
4BB-	.
8r	.
=342	=342
!LO:TX:a:t=arco	!
[2.BB-X	.
=343	=343
2.BB-_	.
=344	=344
4BB-]	.
([8BB-X	.
8BB-L]	.
8GG-X	.
8EE-XJ	.
=345	=345
!!linebreak:original
8DDL	.
8FF)	.
([8BB-XJ	.
8BB-L]	.
8AA-X	.
8FFJ	.
=346	=346
8EE-XL	.
8GG-X	.
!LO:TX:b:i:t=cresc.	!
8BB-XJ)	.
(8E-XL	.
8BB-X	.
8GG-J)	.
=347	=347
(8E-XL	.
8C	.
8AAnJ)	.
(8CL	.
8AA	.
8FFJ)	.
=348	=348
(8D-XL	p
8BB-X)	.
[8FFJ	.
4.FF_	.
=349	=349
2.FF_	.
=350	=350
4FF]	.
(<[8D-X	.
8D-L]	.
8BB-X	.
[8FFJ	.
=351	=351
8FFL]	.
8C)	.
([8E-XJ	.
8E-L]	.
8C	.
[8FFJ	.
=352	=352
!!linebreak:original
8FFL]	.
8BB-X)	.
!LO:TX:b:i:t=cresc.	!
[8D-XJ	.
(8D-L]	.
8BB-X	.
8FFJ)	.
=353	=353
(8CL	.
8GG	.
8EEnJ)	.
(8GGL	.
8EE	.
8CCJ)	.
=354	=354
(8FFL	f
8AA-X	.
8CJ	.
8FL	>
8A-X	.
8FJ)	.
=355	=355
(<8D-XL	.
8F	.
8DnJ	.
8BBL	.
8D	.
8GGnJ)	]
=356	=356
4C	f
8r	.
4r	.
8r	.
=357	=357
4r	.
8r	.
4r	.
([8DD	p
=358	=358
8DDL]	.
8GG	.
[8BB-XJ	.
8BB-L]	.
8GG)	.
([8DDJ	.
=359	=359
!!linebreak:original
8DDL]	.
8AA	.
[8CJ	.
8CL]	.
8AA)	.
([8DDJ	.
=360	=360
8DDL]	.
8GG	.
8BB-XJ)	.
!LO:TX:a:t=pizz.	!
4GG	.
8r	.
=361	=361
4FF#X	.
8r	.
4DD	.
8r	.
=362	=362
!LO:TX:a:t=arco	!
(<8GGL	f
8BB-X	.
8E-XJ	.
8GL	.
8B-X	.
8GJ)	.
=363	=363
8r	p
(8GL	.
8EnJ)	.
8r	.
(8C#XL	.
8AAJ)	.
=364	=364
4D	.
8r	f
4r	.
8r	.
=365	=365
4r	.
8r	.
8r	.
8r	.
!LO:TX:a:t=pizz.	!
8EE	p
=366	=366
4AA	.
8r	.
4FF	.
8r	.
=367	=367
4EE	.
8r	.
8r	.
8r	.
8GG#X	sf
=368	=368
4AA	p
8r	.
4FF	.
8r	.
=369	=369
!!linebreak:original
4EE	.
8r	.
8r	.
8r	.
8GG#X	sf
=370	=370
4AA	.
8r	p
4FF	.
8r	.
=371	=371
4EE	.
8r	.
8r	.
8FF	.
8r	.
=372	=372
4EE	.
8r	.
8r	.
8r	.
8FF	.
=373	=373
!LO:TX:b:i:t=dim.	!
4EE	.
8r	.
4EE	.
8r	.
=374	=374
4EE	.
8r	.
4EE	.
8DD	.
=375	=375
4CC#X	.
8r	.
4DD	.
8r	.
=376	=376
4EE	.
8r	.
4AA	.
8r	.
=377	=377
4CC#X	.
8r	.
4DD	.
8r	.
=378	=378
4EE	.
8r	.
4AA	.
8r	.
=379	=379
!!linebreak:original
8r	.
!LO:TX:a:t=arco	!
16GG#X'LL	.
16AA'	.
16BB'	.
16C#X'JJ	.
4.D	.
=380	=380
4.E	.
4AA	.
8r	.
=381	=381
8r	.
16GG#X'LL	.
16AA'	.
16BB'	.
16C#X'JJ	.
4D	.
8DD	.
=382	=382
!LO:TX:b:i:t=cresc.	!
(4EE	.
[8E)	.
(8EL]	.
8D)	.
8BB'J	.
=383	=383
4AA	p
8r	.
!LO:TX:a:t=pizz.	!
4AA	.
8r	.
=384	=384
4AA	.
8r	.
4AA	.
8r	.
=385	=385
4AA	.
!LO:TX:b:i:t=cresc.	!
8r	.
4AA	.
8r	.
=386	=386
!LO:TX:b:i:t=dim.	!
4AA	.
8r	.
4AA	.
8r	.
=387	=387
4AA	.
8r	.
4AA	.
8r	.
=388	=388
!!linebreak:original
4AA	.
8r	pp
8r	.
!LO:TX:a:t=arco	!
8AL	.
8AJ	.
=389	=389
4B-X	.
8r	.
8r	.
!LO:TX:b:i:t=cresc.	!
8B-L	.
8B-J	.
=390	=390
4A-X	.
8r	f
4r	.
8r	.
=391	=391
4r	.
8r	.
8r	.
16r	.
16C'LL	.
16BB-X'	p
16AA-X'JJ	.
=392	=392
4GG	.
8r	.
4AA-X	.
8r	.
=393	=393
4.BB-X	.
8E-XL	.
16D'L	.
16C'	.
16BB-'	.
16AA-X'JJ	.
=394	=394
4GG	.
8r	.
4AA-X	.
8r	.
=395	=395
!LO:TX:b:i:t=cresc.	!
4.BB-X	.
4.BB-	.
=396	=396
4EE-X	p
8r	.
4EE-X	.
!LO:TX:a:t=pizz.	!
8r	.
=397	=397
!!linebreak:original
4EE-X	.
8r	.
4EE-X	.
8r	.
=398	=398
4EE-X	sf
8r	.
4EE-	p
8r	.
=399	=399
4EE-X	.
8r	.
8EE-	.
8r	.
8B-X	.
=400	=400
8e-XL	.
8d	fp
8cJ	.
8B-XL	.
8c	.
8A-XJ	.
=401	=401
!LO:TX:b:i:t=dim.	!
8GL	.
8F	.
8E-XJ	.
8DL	.
8E-	.
8CJ	.
=402	=402
8BB-XL	.
8AA-X	.
8GGJ	.
8FFL	.
8EE-X	.
8DDJ	.
=403	=403
8CC#XL	.
8EEn	.
8DDJ	.
8CC#L	.
8EE	.
8CC#J	.
=404	=404
!LO:TX:b:i:t=sempre dim.	!
8DDL	.
8CC#X	.
8DDJ	.
8CC#L	.
8DD	.
8CC#J	.
=405	=405
!!linebreak:original
8DDL	.
8CC#X	.
8DDJ	.
8CC#XL	.
8DD	.
8DDJ	.
=406	=406
8EEL	pp
8DD#X	.
8EEJ	.
8DD#L	.
8EE	.
8DD#J	.
=407	=407
8EEL	.
8DD#X	.
8EEJ	.
8DD#L	.
8EE	.
8DD#J	.
=408	=408
4EE	.
8r	.
4EE	.
8r	.
=409	=409
4EE	.
8r	.
4EE	.
8r	.
=410	=410
4EE	f
8r	.
4EE	p
8r	.
=411	=411
4EE	.
8r	.
4EE	.
8r	.
=412	=412
4EE	.
8r	.
4EE	.
8r	.
=413	=413
!!linebreak:original
4EE	.
8r	.
4EE	.
8r	.
=414	=414
8AAL	.
8BB	.
8AAJ	.
!LO:TX:b:i:t=cresc.	!
8GG#XL	.
8AA	.
8GGnJ	.
=415	=415
8FFL	.
8EE	.
8DDJ	.
8CCL	.
8DD	.
8DD#XJ	.
=416	=416
4EE	.
8r	f
4EE	.
8r	p
=417	=417
4EE	.
8r	.
4EE	.
8r	.
=418	=418
4EE	.
8r	.
4EE	.
8r	.
=419	=419
4EE	.
8r	.
4EE	.
8r	.
=420	=420
8AAL	.
!LO:TX:b:i:t=cresc.	!
8BB	.
8AAJ	.
8GG#XL	.
8AA	.
8GGnJ	.
=421	=421
8FFL	.
8GG	.
8FFJ	.
8EEL	.
8FF	.
8DDJ	.
=422	=422
!!linebreak:original
4CC	.
8r	.
!	!LO:DY:a
4C	p
8r	p
=423	=423
4FF	.
8r	.
4AA	.
8r	.
=424	=424
4DD	.
8r	.
4D	f
8r	.
=425	=425
4AA	p
8r	.
4AA	.
8r	.
=426	=426
4D	.
8r	.
4EE	.
8r	.
=427	=427
!LO:TX:a:t=arco	!
4AA	.
8AA	.
(8CL	.
8BB	sfp
8AAJ)	.
=428	=428
4.EE	.
4.EE	.
=429	=429
4.AA	.
(8CL	sfp
8BB	.
8AAJ)	.
=430	=430
4.EE	.
(8CL	sfp
8BB	.
8AAJ)	.
=431	=431
!!linebreak:original
4.EE	.
!LO:TX:b:i:t=cresc.	!
(8FL	.
8E	.
8DJ)	.
=432	=432
(4C	.
8F	p
4D	.
8E)	.
=433	=433
(4F	.
!LO:TX:b:i:t=cresc.	!
8E	.
8DL	.
8C	.
8BBJ)	.
=434	=434
8C	f
8r	>
8FF	.
4DD	.
!LO:TX:a:t=pizz.	!
8EE	.
=435	=435
8AAL	p
8GG	.
8EEJ	.
8GGL	.
8FF	.
8DDJ	.
=436	=436
4CC	.
8c	.
8B-XL	.
8A	.
8EJ	.
=437	=437
8EL	.
8F	.
8FJ	.
8GL	.
8F	.
8C#XJ	.
=438	=438
8C#XL	.
8D	.
8DJ	.
8FL	fp
8E	.
8DJ	.
=439	=439
!!linebreak:original
8C#XL	.
8BB-X	.
8AAJ	.
8GGL	.
8FF	.
8EEJ	.
=440	=440
8DDL	.
8EE	.
8FFJ	.
8EEL	.
8E	.
8EEJ	.
=441	=441
8EL	.
8AA	.
8AAJ	.
8CnL	sf
8BBn	.
8AAJ	p
=442	=442
8EEL	.
8GG#X	.
8BBJ	.
8EL	.
8EE	.
8EJ	.
=443	=443
8AAL	.
8E	.
8AAJ	.
8CL	sf
8BB	.
8AAJ	p
=444	=444
8EEL	.
8GG#X	.
8BBJ	.
8CL	sf
8BB	.
8AAJ	p
=445	=445
8EEL	.
8GG#X	.
8BBJ	.
!LO:TX:b:i:t=cresc.	!
8FL	.
8E	.
8DJ	.
=446	=446
8CL	p
8CC	.
8FFJ	.
8DDL	.
8D	.
8EEJ	.
=447	=447
!!linebreak:original
!LO:TX:b:i:t=cresc.	!
8FFL	.
8F	.
8EJ	.
8DL	.
8C	.
8BBJ	.
=448	=448
8CCL	f
8C	>
8FJ	.
8DL	.
8DD	.
8EEJ	.
=449	=449
4AA	]
8r	p
4AA	.
8r	.
=450	=450
4AA	.
8r	.
4AA	.
8r	.
=451	=451
4AA	.
8r	.
4AA	.
8r	.
=452	=452
4AA	.
8r	.
4AA	.
8r	.
=453	=453
4AA	.
8r	.
4AA	.
8r	.
=454	=454
8AA	.
8rD	.
(8BB-X	f
!LO:TX:a:t=arco	!
8GG-XL	.
8BB-	.
8FFJ	sf
=455	=455
8EEL	.
8GGn	.
8BB-XJ)	.
(8GG-XL	.
8BB-	.
8FFJ	sf
=456	=456
!!linebreak:original
8EEL	.
8GGn	.
8BB-XJ)	.
(8GGL	.
8BB-	.
8FFJ)	.
=457	=457
(8EEL	f
8GG	.
8FFJ	.
8CC#XL	>
8DD	.
8FFJ)	.
=458	=458
[2.EE	]
=459	=459
!LO:TX:b:i:t=cresc.	!
4.EE_	p
4EE]	.
[8DD-X	sf
=460	=460
(4DD-]	.
8CC)	.
8r	.
8r	.
[8DD-X	sf
=461	=461
(4DD-]	.
8CC)	.
8r	.
8r	f
[8CC#X	.
=462	=462
4.CC#_	.
4CC#]	>
8C#X	.
=463	=463
4Dn	p
8F	.
4E	.
8EE	.
=464	=464
!!linebreak:original
4AA	.
8r	.
!LO:TX:a:t=pizz.	!
4AA	.
8r	.
=465	=465
4AA	.
8r	.
4AA	.
8r	.
=466	=466
4AA	.
8r	.
4AA	.
8r	.
=467	=467
4AA	.
8r	.
4AA	.
8r	.
=468	=468
4AA	.
!LO:TX:b:i:t=dim.	!
8r	.
4AA	.
8r	.
=469	=469
4AA	.
8r	.
4AA	.
8r	.
=470	=470
8AAL	pp
8GG	.
8FFJ	.
8EEL	.
8FF	.
8DDJ	.
=471	=471
8CCL	.
8DD	.
8DD#XJ	.
8EEL	.
8FF#X	.
8GG#XJ	.
=472	=472
!!linebreak:original
8AAL	.
!LO:TX:b:i:t=cresc.	!
8BB	.
8CJ	.
8DnL	.
8D#X	.
8EJ	.
=473	=473
8FnL	.
8Dn	.
8EJ	.
8CL	.
8D	.
8BBJ	.
=474	=474
8CL	.
8AA	.
8BBJ	.
8AAL	.
!LO:TX:b:i:t=dim.	!
8BB	.
8AAJ	.
=475	=475
8BBL	.
8AA	.
8BBJ	.
8AAL	.
8BB	pp
8AAJ	.
=476	=476
4AA	.
8r	.
4AA	.
8r	.
=477	=477
4AA	.
8r	.
4r	.
8r	.
==478	==478
!!linebreak:original
*k[]	*
*C:	*
*M3/4	*
!LO:TX:a:B:t=Menuetto Grazioso	!
(2c	.
16dLL	p
16c	.
16B	.
16AJJ)	.
=479	=479
(4G	.
4G#X	.
4A)	.
=480	=480
(4F	.
2F#X)	.
=481	=481
(4Gn	.
4D	.
4G)	.
=482	=482
(2c	.
16dLL	.
16c	.
16B	.
16AJJ)	.
=483	=483
(4G	.
4G#X	.
4A)	.
=484	=484
(4F	.
4F#X	.
4Gn)	.
=485	=485
(4c	.
4G	.
4C)	.
=486	=486
!!linebreak:original
(2C	.
!LO:TX:a:i:t=sul una corda.	!
16DLL	.
16C	.
16BB	.
16AAJJ)	.
=487	=487
(4GG	.
4GG#X	.
4AA)	.
=488	=488
(4FF	.
2FF#X)	.
=489	=489
(4GGn	.
4DD	.
4GG)	.
=490	=490
(2C	.
16DLL	.
16C	.
16BB	.
16AAJJ)	.
=491	=491
(4GG	.
4GG#X	.
4AA)	.
=492	=492
(4FF	.
4FF#X	.
4GGn)	.
=493	=493
(4C	.
4GG	.
4CC)	.
=494!|:	=494!|:
!!linebreak:original
4r	.
!LO:TX:b:i:t=cresc.	!
2G	.
=495	=495
4r	.
2G	.
=496	=496
4r	.
4G	.
[4G	.
=497	=497
4G]	.
4G	.
4r	f
=498	=498
2.r	.
=499	=499
(<16DLL	.
16C	p
16BB	.
16AAJJ	.
16GGLL	.
16AA	.
16BB	.
16CJJ	.
16DLL	.
16E	.
16F	.
16DJJ)	.
=500	=500
(2C	.
16BBLL	.
16C	.
16D	.
16EJJ)	.
=501	=501
(2F	.
4E	.
=502	=502
4D)	.
(4.G	sfp
8F#X)	.
=503	=503
!!linebreak:original
(4.A	sfp
8GL	.
8Fn	.
8DJ)	.
=504	=504
(4C	.
4c	.
16dLL	.
16c	.
16B	.
16AJJ)	.
=505	=505
(4G	.
4G#X	.
4A)	.
=506	=506
!LO:TX:b:i:t=cresc.	!
(4F	.
4F#X	.
4Gn)	.
=507	=507
(4G#X	.
2A)	.
=508	=508
4.B	.
(8BL	f
8cJ)	.
[8c	.
=509	=509
8cL]	.
(8FJ	p
8Gn)	.
(4g	.
8f)	.
=510	=510
!LO:TX:b:i:t=cresc.	!
(4e	.
16fLL)	.
(16e	.
16d	.
16cJJ	.
16BLL	.
16A	.
16G	.
16FJJ)	.
=511	=511
!!linebreak:original
(16ELL	.
16D	.
16C	.
16BBJJ	.
16AALL	.
16GG	.
16FF	.
16EEJJ	.
16DDLL	.
16EE	.
16FF	.
16DDJJ)	.
=512	=512
8CCL	.
8CJ	.
(<16BBLL	.
16C	.
16D	.
16EJJ	.
16FLL	.
16E	.
16D	.
16CJJ)	.
=513	=513
(16BBLL	f
16C	.
16BB	.
16AAJJ)	.
[2GG	.
=514	=514
2GG]	.
!LO:TX:b:i:t=dim.	!
[4GG	.
=515	=515
4GG]	.
(4GG	p
4CC)	.
=516:|!|:	=516:|!|:
!!linebreak:original
*k[b-]	*
*F:	*
!LO:TX:a:B:t=Trio	!
4FF	f
4r	.
4r	.
=517	=517
2.r	.
=518	=518
4r	.
8r	.
8FF'L	p
8EE'	.
8GG'J	.
=519	=519
4.FF	fp
8FF'L	.
8EE'	.
8GG'J	.
=520	=520
4.FF	fp
8FF'L	.
8EE'	.
8DD'J	.
=521	=521
4CC	.
4r	.
4r	.
=522	=522
4CC	.
4r	.
4r	.
=523	=523
4CC	.
4r	.
4r	.
=524	=524
8r	.
8GGL	.
8GG	.
8GG	.
8GG	.
8GGJ	.
=525	=525
!!linebreak:original
8CL	.
8CC	.
8CJ	.
!LO:TX:b:i:t=cresc.	!
8r	.
4r	.
=526	=526
8CL	.
8CC	.
8CJ	.
8r	.
4r	.
=527	=527
8CL	.
8CC	.
8CJ	.
8r	.
4r	.
=528	=528
4r	.
8r	.
8GGL	sf
8GG	.
8GGJ	.
=529	=529
4r	.
8r	.
8GGL	sf
8GG	.
8GGJ	.
=530	=530
4r	.
8r	.
8GGL	f
8GG	.
8GGJ	.
=531	=531
8CC'L	.
8D'J	.
8r	sf
8BB-'L	.
8GG'	p
8C'J	.
=532:|!	=532:|!
*^	*
8CC'L	2ryy	f
8C'J	.	.
8r	.	.
8C	.	.
(8.BB-TL	36...BB-yy	.
.	32CLLLyy	.
.	32BB-yy	.
.	32Cyy	.
.	32BB-JJJyy	.
.	96ryy	.
32AALL	16ryy	.
32BB-JJJ)	.	.
*v	*v	*
=533!|:	=533!|:
!!linebreak:original
4AA	f
4r	.
4r	.
=534	=534
2.r	.
=535	=535
4r	.
8r	f
8DD'L	.
8CC#X'	.
8EE'J	.
=536	=536
4.DD	.
8r	.
4r	.
=537	=537
4r	.
8r	f
8EE'L	.
8DD'	.
8FF'J	.
=538	=538
4.EE	.
8r	.
4r	.
=539	=539
4r	.
8r	.
8FF'L	f
8EE'	.
8GG'J	.
=540	=540
4FF	.
4r	.
4r	.
=541	=541
4r	.
4r	.
8r	p
8CC	.
=542	=542
4FF	.
4r	.
4r	.
=543	=543
!!linebreak:original
4FF	.
4r	.
4r	.
=544	=544
4FF	.
4r	.
4r	.
=545	=545
4r	.
8r	.
8CL	.
8C	.
8CJ	.
=546	=546
!LO:TX:b:i:t=cresc.	!
8FL	.
8FF	.
8FJ	.
8r	.
4r	.
=547	=547
8FL	.
8FF	.
8FJ	.
8r	.
4r	.
=548	=548
8FL	.
8FF	.
8FJ	.
8r	.
4r	.
=549	=549
4r	.
8r	.
8CL	sf
8CC	.
8CJ	.
=550	=550
4r	.
8r	.
8CL	sf
8CC	.
8CJ	.
=551	=551
!!linebreak:original
4r	.
8r	.
8CL	f
8CC	.
8CJ	.
=552	=552
*^	*
8FF'L	2ryy	.
8FF'J	.	.
8r	.	.
8FF	.	.
(8.GGTL	36...GGyy	.
.	32AALLLyy	.
.	32GGyy	.
.	32AAyy	.
.	32GGJJJyy	.
.	96ryy	.
32FFLL	16ryy	.
32GGJJJ)	.	.
*v	*v	*
=553:|!	=553:|!
8FFL	.
8FFJ	sf
8r	.
8FF'L	p
8DD'	.
8FF'J	.
=554	=554
4GG	.
4r	.
4r	.
=555	=555
!LO:TX:a:B:t=Menuetto da Capo	!
2.r	.
=556||	=556||
!!linebreak:original
*k[]	*
*C:	*
(2C	.
16BBLL	pp
16C	.
16D	.
16E-XJJ)	.
=557	=557
!LO:TX:a:B:t=Coda	!
(2F	.
16ELL	.
16F	.
16G	.
16A-XJJ)	.
=558	=558
(<2D	.
16C#XLL	.
16D	.
16E	.
16FJJ)	.
=559	=559
4BB-X	.
4r	.
4r	.
=560	=560
(2E-X	pp
16DLL	.
16E-	.
16F	.
16GJJ)	.
=561	=561
(2A-X	.
16GLL	.
16A-	.
16B-X	.
16cJJ)	.
=562	=562
(2F	.
16EnLL	.
16F	.
16G	.
16A-XJJ)	.
=563	=563
4D	.
4r	.
(16ELL	.
16F	.
16G	.
16A-XJJ)	.
=564	=564
(2D	.
16C#XLL	.
16D	.
16E	.
16FJJ)	.
=565	=565
4BB	.
4r	.
(4AA-X	.
=566	=566
4GG)	f
4r	p
4r	.
=567	=567
!!linebreak:original
(<8CCL	sf
16DDL	.
16EE-XJJ	>
16FFLL	.
16GG	.
16AAn	.
16BBJJ	.
16CLL	.
16D	.
16E-X	.
16FJJ)	.
=568	=568
4G	]
4r	p
!LO:TX:b:i:t=cresc.	!
(16GGLL	.
16FF	.
16EE-X	.
16DDJJ)	.
=569	=569
(8CCL	sf
16DDL	>
16EE-XJJ	.
16FFLL	.
16GG	.
16AA	.
16BBJJ	.
16CLL	.
16D	.
16E-X	.
16FJJ	]
=570	=570
4G)	p
(4GG	.
!LO:TX:b:i:t=dim.	!
4AA-X	.
=571	=571
4AAn	.
4BB-X	.
4BBn)	pp
=572	=572
[2BB	.
!LO:TX:b:i:t=cresc.	!
8BBL]	.
(16FL	f
16EJJ	.
=573	=573
16DLL	.
16C	>
16BB	.
16AAJJ)	.
4GG;	.
4r	.
==574	==574
!!linebreak:original
*M2/2	*
*met(c|)	*
1r	]
=575	=575
!LO:TX:a:B:t=Allegro molto.	!
1r	.
=576	=576
1r	.
=577	=577
1r	.
=578	=578
1r	.
=579	=579
1r	.
=580	=580
1r	.
=581	=581
1r	.
=582	=582
1r	.
=583	=583
1r	.
=584	=584
1r	.
=585	=585
1r	.
=586	=586
1r	.
=587	=587
1r	.
=588	=588
1r	.
=589	=589
1r	.
=590	=590
1r	.
=591	=591
1r	.
=592	=592
1r	.
=593	=593
1r	.
=594	=594
[2G	.
!LO:TX:b:i:t=crescendo poco a poco	!
8GL]	.
8G	.
8A	.
8GJ	.
=595	=595
8FL	.
8EJ	.
4D	.
8r	.
8FL	.
8G	.
8FJ	.
=596	=596
8EL	.
8DJ	.
4C	.
8r	.
8GL	.
8A	.
8GJ	.
=597	=597
8FL	.
8E	.
8D	.
8EJ	.
8FL	.
8D	.
8G	.
8FJ	.
=598	=598
8EL	.
8D	.
8C	.
8DJ	.
8EL	.
8F	.
8G	.
8EJ	.
=599	=599
!!linebreak:original
8AL	.
8G	.
8F	.
8AJ	.
8BL	.
8A	.
8G	.
8BJ	.
=600	=600
8cL	.
8d	.
8e	.
8cJ	.
8GL	.
8F	.
8E	.
8GJ	.
=601	=601
8AL	.
8G	.
8F	.
8AJ	.
8BL	.
8A	.
8G	.
8BJ	.
=602	=602
8cL	.
8c	.
8B	.
8cJ	.
8AL	.
8A	.
8G#X	.
8AJ	.
=603	=603
8FL	.
8F	.
8E	.
8FJ	.
8GnL	.
8G	.
8F#X	.
8GJ	.
=604	=604
8EL	f
8GG	.
8AA	.
8BBJ	.
8CL	.
8BB	.
8C	.
8C#XJ	.
=605	=605
!!linebreak:original
8DL	.
8E	.
8Fn	.
8DJ	.
8BBL	.
8D	.
8GG	.
8BBJ	.
=606	=606
8CnL	.
8BB	.
8C	.
8DJ	.
8EL	.
8D	.
8C	.
8C#XJ	.
=607	=607
8DL	.
8AA	.
8BB	.
8C#XJ	.
8DL	.
8Cn	.
8BB	.
8GGJ	.
=608	=608
4C'	.
4GG'	.
4CC'	.
4BB-X'	.
=609	=609
4FF	.
4AA	.
4DD	.
4GG	.
=610	=610
4EE	.
4GG	.
4CC	.
4BB-X	.
=611	=611
4FF	.
4AA	.
4DD	.
4GG	.
=612	=612
2AA'	.
2BBn'	.
=613	=613
!!linebreak:original
2C'	.
2D'	.
=614	=614
2E'	.
2F'	.
=615	=615
2G'	.
2G#X'	.
=616	=616
2A'	.
2B'	.
=617	=617
!LO:TX:b:i:t=piu	!
2c'	.
2d'	f
=618	=618
2e'	.
2F'	.
=619	=619
2G'	.
2GG	.
=620	=620
4CC 4C	ff
4r	.
4CC 4C	.
4r	.
=621	=621
4CC 4C	.
4r	.
4CC 4C	.
4r	.
=622	=622
[1CC [1C	sf
=623	=623
1CC] 1C]	.
=624	=624
4CC 4C	.
4r	.
4CC 4C	.
4r	.
=625	=625
!!linebreak:original
4CC 4C	.
4r	.
4CC 4C	.
4r	.
=626	=626
[1C#X	sf
=627	=627
1C#]	.
=628	=628
4C#X	.
4r	.
4D	.
4r	.
=629	=629
4BB	.
4r	.
4Cn	.
4r	.
=630	=630
4C	.
4r	.
4C	.
4r	.
=631	=631
4BB	.
4r	.
4AA	.
4r	.
=632	=632
4GG	.
4r	.
4FF#X	.
4r	.
=633	=633
4FF#X	f
4r	.
2r	.
=634	=634
1r	.
=635	=635
1r	.
=636	=636
1r	.
=637	=637
1r	.
=638	=638
2r	.
8CL	.
8BB	p
8AA	.
8FF#XJ	.
=639	=639
!!linebreak:original
8DDL	.
8EE	.
8FFn	.
8FF#XJ	.
4GG	.
4GG	.
=640	=640
1r	.
=641	=641
1r	.
=642	=642
2r	.
8CL	.
8BB	.
8AA	.
8FF#XJ	.
=643	=643
8DDL	.
8EE	.
8FFn	.
8FF#XJ	.
4GG	.
4GG	.
=644	=644
1r	.
=645	=645
[1C	<
=646	=646
4C]	.
(4c	[
4B)	>
4B	.
=647	=647
4c	]
!LO:TX:b:i:t=cresc.	!
[2.C	.
=648	=648
4C]	.
[2.D	.
=649	=649
4D]	.
[2.E	.
=650	=650
4E]	.
2.F#X	.
=651	=651
!!linebreak:original
4G	f
4r	.
4G	.
4r	.
=652	=652
4G	.
4r	.
4G	.
4r	.
=653	=653
4G	.
4r	.
4G	.
4r	.
=654	=654
1r	.
=655	=655
8FL	p
8F	.
8E	.
8EJ	.
8BBL	.
8BB	.
8C	.
8CJ	.
=656	=656
8FL	.
8F	.
8E	.
8EJ	.
8BBL	.
8BB	.
8C	.
8CJ	.
=657	=657
!LO:TX:b:i:t=cresc.	!
8DL	.
8D	.
8BB	.
8BBJ	sf
8GGL	.
8GG	.
8BB	.
8BBJ	.
=658	=658
4GG	p
4r	.
2r	.
=659	=659
!!linebreak:original
8FL	.
8F	.
8E	.
8EJ	.
8BBL	.
8BB	.
8C	.
8CJ	.
=660	=660
8FL	.
8F	.
8E	.
8EJ	.
8BBL	.
8BB	.
8C	.
8CJ	.
=661	=661
8BB-XL	.
!LO:TX:b:i:t=cresc.	!
8BB-	.
8BB-	.
8BB-J	.
8BB-L	.
8BB-	.
8BB-	.
8BB-J	.
=662	=662
8BB-XL	.
8BB-	.
8BB-	.
8BB-J	.
8BB-L	.
8BB-	.
8BB-	.
8BB-J	.
=663	=663
8BB-XL	.
8BB-	.
8BB-	.
8BB-J	.
8GGL	.
8GG	.
8EE-X	.
8EE-J	.
=664	=664
4BB-X	ff
4r	.
2r	.
=665	=665
1r	.
=666	=666
1r	.
=667	=667
!!linebreak:original
2r	.
8r	.
8BB-XL	.
8C	p
8BB-J	.
=668	=668
8AA-XL	.
8GGJ	.
4FF	.
8r	.
8AA-L	.
8BB-X	.
8AA-J	.
=669	=669
!LO:TX:b:i:t=cresc.	!
8GGL	.
8FF	.
8EE-X	.
8FFJ	.
8GGL	.
8AA-X	.
8BB-X	.
8GGJ	.
=670	=670
8CL	.
8BB-X	.
8AA-X	.
8CJ	.
8DL	.
8C	.
8BB-	.
8DJ	.
=671	=671
4E-X	.
4r	.
2r	.
=672	=672
1r	.
=673	=673
[2FF	f
8FFL]	.
8FF	.
8EEn	.
8FFJ	.
=674	=674
8GGL	.
8AA-XJ	.
4BB-X	.
8r	.
8EEL	.
8DD	.
8EEJ	.
=675	=675
!!linebreak:original
8FFL	.
8GGJ	.
4AA-X	.
2r	.
=676	=676
4C	.
4r	p
2r	.
=677	=677
8AA-XL	.
!LO:TX:b:i:t=cresc.	!
8GG	.
8FF	.
8GGJ	.
8AA-L	.
8BB-X	.
8C	.
8AA-J	.
=678	=678
8D-XL	.
8C	.
8BB-X	.
8D-J	.
8EL	.
8Dn	.
8C	.
8EJ	.
=679	=679
4F	.
4r	.
2r	.
=680	=680
1r	.
=681	=681
4D-X	f
4r	.
[2f	.
=682	=682
8fL]	.
8f	.
8g-X	.
8fJ	.
8e-XL	.
8d-XJ	.
4c	.
=683	=683
!!linebreak:original
8r	.
8e-XL	.
8f	.
8e-J	.
4d-X	.
4r	.
=684	=684
8r	.
8enL	p
8f#X	.
8eJ	.
8d#XL	.
8c#XJ	.
4B#X	.
=685	=685
4c#X	f
4r	.
4C#X	.
4r	.
=686	=686
4C#X	.
4r	.
4C#	.
4r	.
=687	=687
[1C#X	sf
=688	=688
1C#]	.
=689	=689
4C#X	.
4r	.
4C#	.
4r	.
=690	=690
4C#X	.
4r	.
4C#	.
4r	.
=691	=691
[1C#X	sf
=692	=692
1C#]	.
=693	=693
4C#X	.
4C#	.
4EE	.
4EE	.
=694	=694
!!linebreak:original
4FF#X	.
4FF#	.
4GG#X	.
4GG#	.
=695	=695
4AA	.
4AA	.
4EE	.
4EE	.
=696	=696
4FF#X	.
4FF#	.
4GG#X	.
4GG#	.
=697	=697
8CC#XL	.
8CC#	.
8CC#	.
8CC#J	.
8EEL	.
8EE	.
8EE	.
8EEJ	.
=698	=698
8FF#XL	.
8FF#	.
8FF#	.
8FF#J	.
8GG#XL	.
8GG#	.
8GG#	.
8GG#J	.
=699	=699
8AAL	.
8AA	.
8AA	.
8AAJ	.
8BB#XL	.
8BB#	.
8BB#	.
8BB#J	.
=700	=700
8C#XL	.
8C#	.
8C#	.
8C#J	.
8GG#XL	.
8GG#	.
8GG#	.
8GG#J	.
=701	=701
4CC#X	.
4r	.
4C#X	.
4r	.
=702	=702
!!linebreak:original
4C#X	.
4r	.
4C#	.
4r	.
=703	=703
[1AA	.
=704	=704
1AA]	.
=705	=705
4AA	.
4r	.
4AA	.
4r	.
=706	=706
4AA	.
4r	.
4AA	.
4r	.
=707	=707
(8CC#XL	.
8AA)	.
8CC#'	.
8CC#'J	.
(8CC#L	.
8AA)	.
8CC#'	.
8CC#'J	.
=708	=708
(8CC#XL	.
8AA)	.
8CC#'	.
8CC#'J	.
(8CC#L	.
8AA)	.
8CC#'	.
8CC#'J	.
=709	=709
4DD	.
4r	.
2r	.
=710	=710
1r	.
=711	=711
2r	.
2F	.
=712	=712
2E	.
2A	.
=713	=713
!!linebreak:original
4D	.
4r	.
8r	.
8AAL	.
8BB-X	.
8AAJ	.
=714	=714
4BB-X	.
4BB-	.
8r	.
8C#XL	.
8D	.
8C#J	.
=715	=715
8DL	.
8DD	.
8DD	.
8DDJ	.
8DDL	.
8DD	.
8DD	.
8DDJ	.
=716	=716
8DDL	.
8DD	.
8DD	.
8DDJ	.
8DDL	.
8DD	.
8DD	.
8DDJ	.
=717	=717
4DD	p
4r	.
4D	.
4r	.
=718	=718
4D	.
4r	.
4D	.
4r	.
=719	=719
4D	.
4r	.
4D	.
4r	.
=720	=720
4D	.
4r	.
4D	.
4r	.
=721	=721
[1C	f
=722	=722
1C_	>
=723	=723
4C]	]
4r	p
4FF	.
4r	.
=724	=724
!!linebreak:original
4FF	.
4r	.
4FF	.
4r	.
=725	=725
4BB-X	.
4r	.
4BB-	.
4r	.
=726	=726
4BB-X	.
4r	.
4BB-	.
4r	.
=727	=727
4BB-X	.
4r	.
4BB-	.
4r	.
=728	=728
4BB-X	.
4r	.
4BB-	.
4r	.
=729	=729
[1D-X	f
=730	=730
1D-_	.
=731	=731
4D-]	p
4r	.
4BB-X	.
4r	.
=732	=732
4C	.
4r	.
4C	.
4r	.
=733	=733
4FF	.
4r	.
4FF	.
4r	.
=734	=734
4FF	.
4r	.
4FF	.
4r	.
=735	=735
!!linebreak:original
4FF	.
4r	.
4FF	.
4r	.
=736	=736
4FF	.
4r	.
4FF	.
4r	.
=737	=737
[1AA-X	f
=738	=738
2AA-]	.
[2BB	.
=739	=739
4BB]	p
4r	.
4BB	.
4r	.
=740	=740
4BB	.
4r	.
4GG	.
4r	.
=741	=741
!LO:TX:a:i:t=sul una corda.	!
8CL	.
8C	.
8D	.
8CJ	.
8GGL	.
8GG	.
8AA	.
8GGJ	.
=742	=742
8AAL	.
8AA	.
8BB	.
8AAJ	.
8BBL	.
8BB	.
8C	.
8BBJ	.
=743	=743
!!linebreak:original
8CL	.
!LO:TX:b:i:t=cresc.	!
8C	.
8D	.
8CJ	.
8DL	.
8D	.
8E-X	.
8DJ	.
=744	=744
8E-XL	.
8E-	.
8F	.
8E-J	.
8FL	.
8F	.
8G	.
8FJ	.
=745	=745
8GL	f
8G	.
8A-X	.
8GJ	.
8FL	.
8F	.
8G	.
8FJ	.
=746	=746
8E-XL	.
8E-	.
8F	.
8E-J	.
8DL	.
8D	.
8E-	.
8DJ	.
=747	=747
8CL	.
8C	p
8D	.
8CJ	.
8E-XL	.
8E-	.
8F	.
8E-J	.
=748	=748
8CL	.
8C	.
8D	.
8CJ	.
8E-XL	.
8E-	.
8F	.
8E-J	.
=749	=749
!!linebreak:original
1D	ff
=750	=750
1DD	sf
=751	=751
1DD	sf
=752	=752
1DD	sf
=753	=753
1GG	.
=754	=754
1GG	.
=755	=755
1GG	.
=756	=756
1GG	.
=757	=757
1CC 1C	.
=758	=758
1CC 1C	.
=759	=759
1CC 1C	.
=760	=760
1CC 1C	.
=761	=761
2.FF	.
4F	sf
=762	=762
!!linebreak:original
2.E-X	.
4E-	sf
=763	=763
2.D	.
4D	sf
=764	=764
2.C	sf
!LO:TX:b:i:t=sempre	!
4EE-X	.
=765	=765
2.FF	.
4FF	ff
=766	=766
2.EE-X	.
4EE-	.
=767	=767
2.DD	.
4DD	.
=768	=768
2.CC	.
4C	.
=769	=769
2.GG	.
4GG	.
=770	=770
2.C	.
4C	.
=771	=771
2.GG	.
4GG	.
=772	=772
2.C	.
8cL	.
8B-XJ	.
=773	=773
!!linebreak:original
8A-XL	.
8G	.
8F	.
8GJ	.
8A-L	.
8G	.
8F	.
8E-XJ	.
=774	=774
8DL	.
8E-X	.
8F	.
8E-J	.
8DL	.
8E-	.
8D	.
8CJ	.
=775	=775
8BBL	.
8C	.
8D	.
8CJ	.
8BBL	.
8C	.
8BB	.
8AA-XJ	.
=776	=776
8GGL	.
8GG	.
8GG	.
8GGJ	.
8GGL	.
8GG	.
8GG	.
8GGJ	.
=777	=777
8GGL	.
8GG	.
8GG	.
8GGJ	.
8GGL	.
8GG	.
8GG	.
8GGJ	.
=778	=778
!!linebreak:original
8GGL	.
8GG	.
8GG	.
8GGJ	.
8GGL	.
8GG	.
8AA-X	.
8AA-J	.
=779	=779
8GGL	.
8GG	.
8AA-X	.
8AA-J	.
8GGL	.
8GG	.
8AA-	.
8AA-J	.
=780	=780
1GG;	.
=781	=781
[1GG	ff
=782	=782
1GG]	>
=783	=783
4CC	p
4r	.
2r	.
=784	=784
1r	.
=785	=785
1r	.
=786	=786
1r	.
=787	=787
1r	.
=788	=788
1r	.
=789	=789
1r	.
=790	=790
1r	.
=791	=791
1r	.
=792	=792
1r	.
=793	=793
!!linebreak:original
2G'	.
2G#X'	p
=794	=794
2A'	.
2D'	.
=795	=795
2Gn'	.
2G#X	.
=796	=796
2A'	.
2D'	.
=797	=797
2Gn'	.
2F'	.
=798	=798
2E'	.
2A'	.
=799	=799
!!linebreak:original
2G'	.
2f'	.
=800	=800
2e'	.
2g'	.
=801	=801
2f'	.
2F'	.
=802	=802
2D'	.
2BB'	.
=803	=803
[2G	.
!LO:TX:b:i:t=cresc.	!
8GL]	.
8G	.
8A	.
8GJ	.
=804	=804
8FL	.
8EJ	.
4D	.
8r	.
8FL	.
8G	.
8FJ	.
=805	=805
8EL	.
8DJ	.
4C	.
8r	.
8GL	.
8A	.
8GJ	.
=806	=806
8FL	.
8EJ	.
4D	.
8r	.
8FL	.
8G	.
8FJ	.
=807	=807
!!linebreak:original
8EL	.
8D	.
8C	.
8DJ	.
8EL	.
8F	.
8G	.
8EJ	.
=808	=808
8AL	.
8G	.
8F	.
8AJ	.
8BL	.
8A	.
8G	.
8BJ	.
=809	=809
8cL	.
8d	.
8e	.
8cJ	.
8GL	.
8F	.
8E	.
8GJ	.
=810	=810
8AL	.
8G	.
8F	.
8AJ	.
8BL	.
8A	.
8G	.
8BJ	.
=811	=811
8cL	.
8c	.
8B	.
8cJ	.
8AL	.
8A	.
8G#X	.
8AJ	.
=812	=812
8FL	.
8F	.
8E	.
8FJ	.
8GnL	.
8G	.
8F#X	.
8GJ	.
=813	=813
!!linebreak:original
2C'	.
2C#X'	f
=814	=814
2D'	.
2GG'	.
=815	=815
2Cn'	.
2C#X'	.
=816	=816
2D'	.
2GG'	.
=817	=817
2Cn'	.
2BB-X'	.
=818	=818
2AA'	.
2FF'	.
=819	=819
2EE'	.
2BB-X'	.
=820	=820
2AA'	.
2F'	.
=821	=821
2E'	.
2BBn'	.
=822	=822
2C'	.
2D'	.
=823	=823
2E'	.
2F'	.
=824	=824
2G'	.
2G#X'	.
=825	=825
!!linebreak:original
8AL	.
8A	.
8G#X	.
8AJ	.
8BL	.
8B	.
8A	.
8BJ	.
=826	=826
!LO:TX:b:i:t=piu	!
8cL	.
8c	f
8B	.
8cJ	.
8dL	.
8d	.
8c	.
8dJ	.
=827	=827
8eL	.
8e	.
8d	.
8eJ	.
8fL	.
8f	.
8e	.
8fJ	.
=828	=828
8gL	.
8G	.
8G	.
8GJ	.
8GL	.
8GG	.
8GG	.
8GGJ	.
=829	=829
4CC 4C	ff
4r	.
4CC 4C	.
4r	.
=830	=830
4CC 4C	.
4r	.
4CC 4C	.
4r	.
=831	=831
!!linebreak:original
[1CC [1C	sf
=832	=832
1CC] 1C]	.
=833	=833
4CC 4C	.
4r	.
4CC 4C	.
4r	.
=834	=834
4CC 4C	.
4r	.
4CC 4C	.
4r	.
=835	=835
[1C#X	sf
=836	=836
1C#]	.
=837	=837
4C#X	.
4r	.
4D	.
4r	.
=838	=838
4BB	.
4r	.
4Cn	.
4r	.
=839	=839
4C#X	.
4r	.
4D	.
4r	.
=840	=840
!!linebreak:original
4BB	.
4r	.
4Cn	.
4r	.
=841	=841
4C	.
4r	.
4C	.
4r	.
=842	=842
4BB	.
4r	.
4BB-X	.
4r	.
=843	=843
4AA	.
4r	.
4AA-X	.
4r	.
=844	=844
4GG	.
4r	.
4GG	.
4r	.
=845	=845
4GG	.
4r	sf
2r	.
=846	=846
1r	.
=847	=847
1r	.
=848	=848
1r	.
=849	=849
1r	.
=850	=850
1r	.
=851	=851
2r	.
8AAL	p
8GG	.
8FF	.
8DDJ	.
=852	=852
8GGL	.
8AA	.
8BB-X	.
8BBnJ	.
4C	.
4C	.
=853	=853
1r	.
=854	=854
1r	.
=855	=855
!!linebreak:original
2r	.
8AAL	.
8GG	.
8FF	.
8DDJ	.
=856	=856
8GGL	.
8AA	.
8BB-X	.
8BBnJ	.
4C	.
4C	.
=857	=857
1r	.
=858	=858
2.F	<
[4f	.
=859	=859
4f]	.
(4f	>
4e)	.
4e	.
=860	=860
4f	]
!LO:TX:b:i:t=cresc.	!
[2.F	.
=861	=861
4F]	.
[2.G	.
=862	=862
4G]	.
[2.A	.
=863	=863
4A]	.
2.B	.
=864	=864
4c	.
4r	f
4c	.
4r	.
=865	=865
4c	.
4r	.
4c	.
4r	.
=866	=866
!!linebreak:original
4c	.
4r	.
4C	.
4r	.
=867	=867
4C	p
4r	.
2r	.
=868	=868
8B-XL	.
8B-	.
8A	.
8AJ	.
8EL	.
8E	.
8F	.
8FJ	.
=869	=869
8B-XL	.
8B-	.
8A	.
8AJ	.
8EL	.
8E	.
8F	.
8FJ	.
=870	=870
!LO:TX:b:i:t=cresc.	!
8GL	.
8G	.
8E	sf
8EJ	.
8CL	.
8C	.
8E	.
8EJ	.
=871	=871
4C	p
4r	.
2r	.
=872	=872
8BB-XL	.
8BB-	.
8AA	.
8AAJ	.
8EEL	.
8EE	.
8FF	.
8FFJ	.
=873	=873
!!linebreak:original
8BB-XL	.
8BB-	.
8AA	.
8AAJ	.
8EEL	.
8EE	.
8FF	.
8FFJ	.
=874	=874
!LO:TX:b:i:t=cresc.	!
8EEL	.
8EE	.
8EE	.
8EEJ	.
8EEL	.
8EE	.
8EE	.
8EEJ	.
=875	=875
8EE-XL	.
8EE-	.
8EE-	.
8EE-J	.
8EE-L	.
8EE-	.
8EE-	.
8EE-J	.
=876	=876
8EE-XL	.
8EE-	.
8E-X	.
8E-J	.
8CL	.
8C	.
8AA-X	.
8AA-J	.
=877	=877
4EE-X	.
4r	ff
2r	.
=878	=878
1r	.
=879	=879
1r	.
=880	=880
!!linebreak:original
2r	.
8r	.
8e-XL	.
8f	p
8e-J	.
=881	=881
8d-XL	.
8cJ	.
4B-X	.
8r	.
8d-L	.
8e-X	.
8d-J	.
=882	=882
8cL	.
8B-XJ	.
4A-X	.
2r	.
=883	=883
2r	.
4E-X	.
4r	.
=884	=884
4AA-X	.
4r	.
2r	.
=885	=885
2r	.
4C	.
4r	.
=886	=886
4FF	.
2r	.
4AA-X	.
=887	=887
!!linebreak:original
4GG	f
4r	.
4C	.
4r	.
=888	=888
4GG	.
4r	.
2r	.
=889	=889
4GG	.
4r	.
2r	.
=890	=890
4GG	.
4r	.
2r	.
=891	=891
4GG	.
4r	.
2r	.
=892	=892
!LO:TX:b:i:t=piu	!
8GGL	.
8GG	.
8GG	f
8GGJ	.
8GGL	.
8GG	.
8GG	.
8GGJ	.
=893	=893
8GGL	.
8GG	.
8GG	.
8GGJ	.
8GGL	.
8GG	.
8GG	.
8GGJ	.
=894	=894
8GGL	.
8GG	.
8GG	.
8GGJ	.
8GGL	.
8GG	.
8AA-X	.
8AA-J	.
=895	=895
!!linebreak:original
8GGL	.
8GG	.
8AA-X	.
8AA-J	.
8GGL	.
8GG	.
8AA-	.
8AA-J	.
=896	=896
4GG	.
4r	.
2r	.
=897	=897
1r	.
=898	=898
4AA	.
4r	.
2r	.
=899	=899
1r	.
=900	=900
4BB	.
4r	p
2r	.
=901	=901
1r	.
=902	=902
1r	.
=903	=903
1r	.
=904	=904
1r	.
=905	=905
1r	.
=906	=906
!!linebreak:original
2c'	.
2c#X'	p
=907	=907
2d'	.
2G'	.
=908	=908
2cn'	.
2c#X'	.
=909	=909
2d'	.
2G'	.
=910	=910
!LO:TX:b:i:t=cresc.	!
4cn	.
4r	.
4r	.
8AL	.
8GJ	.
=911	=911
8FL	.
8EJ	.
4D	.
4r	.
8GL	.
8FJ	.
=912	=912
8EL	.
8DJ	.
4C	.
4r	.
8AL	.
8GJ	.
=913	=913
8FL	.
8EJ	.
4D	.
4r	.
8GL	.
8FJ	.
=914	=914
!!linebreak:original
8EL	.
8DJ	.
4C	.
4r	.
8AAL	.
8GGJ	.
=915	=915
8FFL	.
8EEJ	.
4DD	.
4r	.
8GGL	.
8FFJ	.
=916	=916
8EEL	.
8DDJ	.
4CC	.
4r	.
8AAL	.
8GGJ	.
=917	=917
8FFL	.
8EEJ	.
4DD	.
4r	.
8GGL	.
8FFJ	.
=918	=918
4EE	f
4r	.
2r	.
=919	=919
4C	.
4r	.
2r	.
=920	=920
4EE	.
4r	.
2r	.
=921	=921
4EE	.
4r	.
2r	.
=922	=922
4FF	.
4r	.
2r	.
=923	=923
!!linebreak:original
4FF	.
4r	.
2r	.
=924	=924
4GG	.
4r	.
2r	.
=925	=925
4GG	.
4r	.
2r	.
=926	=926
4EE	p
4r	.
2r	.
=927	=927
4CC	.
4r	.
2r	.
=928	=928
4CC	.
4r	.
2r	.
=929	=929
4EE	.
4r	.
2r	.
=930	=930
4FF	.
4r	.
2r	.
=931	=931
4FF	.
4r	.
2r	.
=932	=932
4GG	.
4r	.
2r	.
=933	=933
4GG	.
4r	.
2r	.
=934	=934
!!linebreak:original
4C	.
4r	.
2r	.
=935	=935
4C	.
4r	.
2r	.
=936	=936
4C	.
4r	.
2r	.
=937	=937
4C	.
4r	.
2r	.
=938	=938
4C	.
4r	.
2r	.
=939	=939
4AA	.
4r	.
2r	.
=940	=940
4D	.
4r	.
2r	.
=941	=941
4GG	.
4r	.
2r	.
=942	=942
4C	.
4r	.
2r	.
=943	=943
4AA	.
4r	.
2r	.
=944	=944
4D	.
4r	.
2r	.
=945	=945
!!linebreak:original
4GG	.
4r	.
2r	.
=946	=946
4C	.
4r	.
2r	.
=947	=947
1r	.
=948	=948
[1G	.
=949	=949
!LO:TX:b:i:t=cresc.	!
1G]	.
=950	=950
4c	.
4r	.
2r	.
=951	=951
1r	.
=952	=952
[1GG	.
=953	=953
1GG]	.
=954	=954
4C	ff
4r	.
8CL	.
8C	.
8D	.
8CJ	.
=955	=955
8BBL	.
8BB	.
8C	.
8BBJ	.
8AAL	.
8AA	.
8BB	.
8AAJ	.
=956	=956
!!linebreak:original
8GGL	.
8GG	.
8AA	.
8GGJ	.
8FFL	.
8FF	.
8GG	.
8FFJ	.
=957	=957
8EEL	.
8EE	.
8FF	.
8EEJ	.
8DDL	.
8DD	.
8EE	.
8DDJ	.
=958	=958
4CC	.
4r	.
2r	.
=959	=959
4BB-X	ff
4r	.
2r	.
=960	=960
2.AA;	.
(8AAL	ff
8GGJ	.
=961	=961
8FFL	.
8EEJ	.
4DD')	.
2r;	.
=962	=962
1r	.
=963	=963
1r	.
=964	=964
1r	.
=965	=965
1r	.
=966	=966
1r	.
=967	=967
2r	.
(2GG	p
=968	=968
4CC)	.
4r	.
2r	.
=969	=969
!!linebreak:original
4C	.
4r	.
2r	.
=970	=970
4C	.
4r	.
2r	.
=971	=971
4C	.
4r	.
2r	.
=972	=972
4C	.
4r	.
2r	.
=973	=973
4AA	.
4r	.
2r	.
=974	=974
4D	.
4r	.
2r	.
=975	=975
4GG	.
4r	.
2r	.
=976	=976
4C	.
!LO:TX:b:i:t=cresc.	!
4C	.
4r	.
4C	.
=977	=977
4AA	.
4AA	.
4r	.
4AA	.
=978	=978
4D	.
4D	.
4r	.
4D	.
=979	=979
4GG	.
4GG	.
4r	.
4GG	.
=980	=980
!!linebreak:original
8CL	.
8C	.
8D	.
8CJ	.
8BB-XL	.
8BB-	.
8C	.
8BB-J	.
=981	=981
8AAL	.
8AA	.
8BB-X	.
8AAJ	.
8C#XL	.
8C#	.
8D	.
8C#XJ	.
=982	=982
8DnL	.
8D	.
8E	.
8DJ	.
8AA-XL	.
8AA-	.
8BB-X	.
8AA-J	.
=983	=983
8GGL	.
8GG	.
8AA-X	.
8GGJ	.
8GGL	.
8GG	.
8GG	.
8GGJ	.
=984	=984
8GGL	.
8GG	f
8GG	.
8GGJ	.
8GGL	.
8GG	.
8GG	.
8GGJ	.
=985	=985
!!linebreak:original
8GGL	.
8GG	.
8GG	.
8GGJ	.
8GGL	.
8GG	.
8GG	.
8GGJ	.
=986	=986
8GGL	.
8GG	.
8GG	.
8GGJ	.
8GGL	.
8GG	.
8GG	.
8GGJ	.
=987	=987
8GGL	.
8GG	.
8GG	.
8GGJ	.
8GGL	.
8GG	.
8GG	.
8GGJ	.
=988	=988
!LO:TX:b:i:t=piu	!
8GGL	.
8GG	.
8GG	f
8GGJ	.
8GGL	.
8GG	.
8GG	.
8GGJ	.
=989	=989
8GGL	.
8GG	.
8GG	.
8GGJ	.
8GGL	.
8GG	.
8GG	.
8GGJ	.
=990	=990
!!linebreak:original
8GGL	.
8GG	.
8GG	.
8GGJ	.
8GGL	.
8GG	.
8GG	.
8GGJ	.
=991	=991
8GGL	.
8GG	.
8GG	.
8GGJ	.
8GGL	.
8GG	.
8GG	.
8GGJ	.
=992	=992
8CL	.
8C	.
8D	.
8CJ	.
8CL	.
8C	.
8D	.
8CJ	.
=993	=993
8BBL	.
8BB	.
8C	.
8BBJ	.
8AAL	.
8AA	.
8BB	.
8AAJ	.
=994	=994
8GGL	.
8GG	.
8AA	.
8GGJ	.
8FFL	.
8FF	.
8GG	.
8FFJ	.
=995	=995
8EEL	.
8EE	.
8FF	.
8EEJ	.
8DDL	.
8DD	.
8EE	.
8DDJ	.
=996	=996
!!linebreak:original
4CC 4D	ff
8GL	.
8GJ	.
8EL	.
8EJ	.
8GL	.
8GJ	.
=997	=997
8cL	.
8cJ	.
8eL	.
8eJ	.
8GL	.
8GJ	.
8cL	.
8cJ	.
=998	=998
8EL	.
8EJ	.
8GL	.
8GJ	.
8CL	.
8CJ	.
8EL	.
8EJ	.
=999	=999
8GGL	.
8GGJ	.
8CL	.
8CJ	.
8EEL	.
8EEJ	.
8CCL	.
8CCJ	.
=1000	=1000
4FF	.
4r	.
2r	.
=1001	=1001
4GG	.
4r	.
2r	.
=1002	=1002
4CC	.
4r	.
2r	.
==	==
*-	*-
!!!RDF**kern: > = above
!!!RDF**kern: < = below
